files/resources/svgs/general/s-bell-slash.svg

<svg width="24" height="24" viewBox="0 0 24 24" fill="none" xmlns="http://www.w3.org/2000/svg">
<path d="M3.53033 2.46967C3.23744 2.17678 2.76256 2.17678 2.46967 2.46967C2.17678 2.76256 2.17678 3.23744 2.46967 3.53033L20.4697 21.5303C20.7626 21.8232 21.2374 21.8232 21.5303 21.5303C21.8232 21.2374 21.8232 20.7626 21.5303 20.4697L3.53033 2.46967Z" fill="#0F172A"/>
<path d="M20.5709 16.4755C20.3473 16.558 20.1222 16.6374 19.8956 16.7136L7.31889 4.13691C8.53246 2.96847 10.1823 2.25 12 2.25C15.7279 2.25 18.75 5.27208 18.75 9L18.7498 9.04919V9.75C18.7498 11.8731 19.5508 13.8074 20.8684 15.2699C21.0349 15.4547 21.0989 15.71 21.0393 15.9516C20.9797 16.1931 20.8042 16.3893 20.5709 16.4755Z" fill="#0F172A"/>
<path fill-rule="evenodd" clip-rule="evenodd" d="M5.25001 8.9998C5.25002 8.81598 5.25737 8.63388 5.27179 8.45377L15.656 18.838C15.2754 20.5056 13.783 21.75 12 21.75C9.92894 21.75 8.25001 20.0711 8.25001 18C8.25001 17.9056 8.25351 17.812 8.2604 17.7192C6.58934 17.4659 4.97287 17.0455 3.42875 16.4755C3.19539 16.3893 3.01992 16.1931 2.96033 15.9516C2.90073 15.71 2.96476 15.4547 3.13126 15.2699C4.4488 13.8074 5.24981 11.8731 5.24981 9.75L5.25001 8.9998ZM9.75221 17.8993C9.75075 17.9326 9.75001 17.9662 9.75001 18C9.75001 19.2426 10.7574 20.25 12 20.25C13.2427 20.25 14.25 19.2426 14.25 18C14.25 17.9662 14.2493 17.9326 14.2478 17.8992C13.5072 17.9659 12.7574 18 11.9998 18C11.2424 18 10.4927 17.966 9.75221 17.8993Z" fill="#0F172A"/>
</svg>

<svg xmlns="http://www.w3.org/2000/svg" viewBox="0 0 24 24" fill="currentColor" aria-hidden="true">
  <path d="M3.53 2.47a.75.75 0 00-1.06 1.06l18 18a.75.75 0 101.06-1.06l-18-18zM20.57 16.476c-.223.082-.448.161-.674.238L7.319 4.137A6.75 6.75 0 0118.75 9v.75c0 2.123.8 4.057 2.118 5.52a.75.75 0 01-.297 1.206z"/>
  <path fill-rule="evenodd" d="M5.25 9c0-.184.007-.366.022-.546l10.384 10.384a3.751 3.751 0 01-7.396-1.119 24.585 24.585 0 01-4.831-1.244.75.75 0 01-.298-1.205A8.217 8.217 0 005.25 9.75V9zm4.502 8.9a2.25 2.25 0 104.496 0 25.057 25.057 0 01-4.496 0z" clip-rule="evenodd"/>
</svg>
